X:1
T:AMERICAN JUBILEE
T:AMERICAN JUBILEE
T:Patriotic Rag FOX TROT 
T:By EDW. B. CLAYPOOLE
T: NOTE: If the presentation of these inspiring American melodies in our native syncopation shall in some measure add to the spirit of patriotism which their playing always arouses, the composers' efforts will be amply rewarded. 
T:Composer of "Ragging The Scale" 
T:Copyright 1916 by Broadway Music Coproration
T:Copyright 1916 by Broadway Music Coproration
T:Copyright 1916 by Broadway Music Coproration
T:Copyright 1916 by Broadway Music Coproration
C:By EDW. B. CLAYPOOLE
Z:Copyright 1916 by Broadway Music Coproration
%%score { ( 1 2 ) | 3 }
L:1/8
Q:1/4=170
M:4/4
K:C
V:1 treble nm="Piano" snm="Pno."
V:2 treble 
V:3 bass 
V:1
"^Moderato"!f!"^R.H." Gc | e2"^Not too fast" Gc e2 Gc | e6 ce | g2 ec G2 !>![G^A]2 | %4
 !>![GB]2 z2 !^![GBdg] z (3GAB |:!p! c>ed>c A !tenuto![Gc]2 A | [^Fc]Ac!>![=Fd]- [Fd]2 (3GAB | %7
 c>ed>c A !tenuto![Gc]2 A | [^Fc]Ac[=Fd]- !>![Fd]4 | z3/2 ^d<[Ge]d/!<(! [Ge]>=dc>A | %10
 [EG]3 !>![EGc]-!<)! [EGc]4 |!f! z2 !>![^Fcd]!>![Fce]- [Fce]>d[Fc]>e | %12
 [=FBd]2 (3(GBd g) z!p! (3(_Bcd | _e>)gf>e c !tenuto![_Be]2 c | %14
 [=A_e]ce!>![_Af]-!<(! [Af]2 ef!<)! |!mf! [Gg]>f_e>f !>![Gg] !>![G_B]2 !>![Gc] | %16
 [^Fd]Ac!>![=Fd]- !>![Fd]2 (3GAB |!p! c>ed>c A !tenuto![Gc]2 A | %18
 [^Fc]Ac!>![=Fd]-!<(! [Fd]2 cd!<)! |!f! [^Fc_e]2 _E_A c2 Ac |1 _e2 [=FGBd]2 !>![EGc]2 (3G=AB :|2 %21
 _e2 [=FGBd]2 [EGc]2 z2 |:!mf! z3/2 G<AB/ G>BA!>!D- | D>GA>B G2{/^f} !>!g z | z3/2 c<de/ c>edG- | %25
 G>cd>e!<(! c>de>f!<)! |!f! !>!g2 !>!G2 !>!G2 d>c | B>dg>a g2 (3(gab | !>![egc']>)ba>g a>gf>e | %29
 f>ed>c d>cB>A |!mf! z3/2 G<AB/ G>BA!>!D- | D>GA>B G2{/^f} !>!g z | z3/2 c<de/ c>ed!>!G- | %33
 G>cd>e!<(! c>de>f!<)! |!ff! !>!g2 !>!e>!>!f !>!g !>!a2 !>!g | !>!g2 !>!e>!>!f !>!g2 z2 | %36
 z2 G>=F E>Gc>e |1 d4- d2 z2 :|2 d4- d2 (3GAB ||!p! c>ed>c A !tenuto![Gc]2 A | %40
 [^Fc]Ac!>![=Fd]- [Fd]2 (3GAB | c>ed>c A !tenuto![Gc]2 A | [^Fc]Ac[=Fd]- !>![Fd]4 | %43
 z3/2 ^d<[Ge]d/!<(! [Ge]>=dc>A | [EG]3 !>![EGc]-!<)! [EGc]4 | %45
!f! z2 !>![^Fcd]!>![Fce]- [Fce]>d[Fc]>e | [=FBd]2 (3(GBd g) z!p! (3(_Bcd | %47
 _e>)gf>e c !tenuto![_Be]2 c | [=A_e]ce!>![_Af]-!<(! [Af]2 ef!<)! | %49
!mf! [Gg]>f_e>f !>![Gg] !>![G_B]2 !>![Gc] | [^Fd]Ac!>![=Fd]- !>![Fd]2!p! (3GAB | %51
 c>ed>c A !tenuto![Gc]2 A | [^Fc]Ac!>![=Fd]-!<(! [Fd]2 cd!<)! |!f! [^Fc_e]2 _E_A c2 Ac | %54
 _e2 [=FGBd]2 [EGc]2 |[K:F][M:4/4] !>![Cc]2 | !>![Ff]8 | !>![Aa]4 !>![cc']4 | !>![ff']8- | %59
 [ff']2 z2 !>![a^c'a']2 !>![gc'g']2 | !>![ff']8- | [ff']2 z2 !>![Afa]2 !>![=Bf=b]2 | !>![cc']8- | %63
 [cc']2 !>![cc']2 !>![dd']2 !>![ee']2 |!p! f>ag>f d2 d>c | d2 d>c d2 d>c | f>ag>f d2 d>c | %67
 d2 d>c d2 d>c | !>![Acf]2 !>![FAdf]4 !>![GBdg]2 | !>![EBe]3 !>![FBf] !>![GBg]2 af | %70
 !>![Adf]2 !>![FBd]2- [FBd]!>!e !>![EBc]2 | !>![FAcf]2 z2!sfz! !>![fac'f']2!ff! (3(E^F^G || %72
[K:C] A2) A>A =B2 e>d | ^c A3- A z"^R.H."!p! ^ce | a2 ^ce a2 ce | a4- a z (3GAB | =c2 c>c d2 g>f | %77
 e c3- c z"^R.H." eg | c'2 eg c'2!p! eg | c'4- c' z c'>b | a2 g2 e2 c2 | d>ed>c A2 (3(GAB | %82
 c2) c>B c>de>f | (g4 e2) c'>b | a2 g2 e2 c2 | d>ed>c A2 c2 | B2 d2 G2 A>B | %87
 c2 !>![_B_b]2 !>![Aa]2 !>![Gg]2 ||[K:F]!ff! !>![Ff]4 x4 | !>![Aa]4 !>![cc']4 | !>![ff']8- | %91
 [ff']2 z2 !>![a^c'a']2 !>![gc'g']2 | !>![ff']8- | [ff']2 z2 !>![Afa]2 !>![=Bf=b]2 | !>![cc']8- | %95
 [cc']2 !>![cc']2 !>![dd']2 !>![ee']2 | f>ag>f d2 d>c | d2 d>c d2 d>c | f>ag>f d2 d>c | %99
 d2 d>c d2 d>c | !>![Acf]2 !>![FAdf]4 !>![GBdg]2 | !>![EBe]3 !>![FBf] !>![GBg]2 af | %102
 !>![Adf]2 !>![FBd]2- [FBd]!>!e !>![EBc]2 | !>![FAcf]2 z2!sfz! !>![fac'f']2 z2 |] %104
V:2
 EG | c2 EG c2 EG | c6 Gc | e2 cG E2 !>![^CE]2 | [DF]2 x6 |: G4 x4 | x8 | G4 x4 | x8 | x8 | x8 | %11
 x8 | x8 | _B4 x4 | x8 | x8 | x8 | G4 x4 | x8 | x2 C_E _A2 EA |1 c2 x6 :|2 c2 x6 |: x8 | x8 | x8 | %25
 x8 | x8 | x8 | x8 | x8 | x8 | x8 | x8 | x8 | !>!G2 !>!E>!>!F !>!G !>!A2 !>!G | %35
 !>!G2 !>!E>!>!F !>!G2 x2 | x8 |1 (^F2 =F2 E2) x2 :|2 (^F2 =F2 E2) x2 || G4 x4 | x8 | G4 x4 | x8 | %43
 x8 | x8 | x8 | x8 | _B4 x4 | x8 | x8 | x8 | G4 x4 | x8 | x2 C_E _A2 EA | c2 x4 |[K:F][M:4/4] x2 | %56
 z3/2 c<dA/ c [Ad]2 c | z2 [cf]2 z2 [ea]2 | z3/2 c'<d'a/ c' [ad']2 c' | [ad']2 x6 | %60
 z3/2 c'<d'a/ c' [ad']2 c' | [ad']2 x6 | z3/2 g<ae/ g [ea]2 g | [ea]2 x6 | A8 | =B4 _B4 | A8 | %67
 =B4 _B4 | x8 | x6 [A^c]2 | x8 | x8 ||[K:C] x8 | x6 EA | ^c2 EA c2 EA | ^c4- c x3 | x8 | x6 Gc | %78
 e2 Gc e2 Gc | e4- e x3 | x8 | x8 | x8 | x8 | x8 | x8 | x8 | x8 ||[K:F] z3/2 c<dA/ c [Ad]2 c | %89
 z2 [cf]2 z2 [ea]2 | z3/2 c'<d'a/ c' [ad']2 c' | [ad']2 x6 | z3/2 c'<d'a/ c' [ad']2 c' | %93
 [ad']2 x6 | z3/2 g<ae/ g [ea]2 g | [ea]2 x6 | A8 | =B4 _B4 | A8 | =B4 _B4 | x8 | x6 [A^c]2 | x8 | %103
 x8 |] %104
V:3
"^L.H." x2 | x8 | x8 | x8 | x2 z2 !^![G,,G,] z z2 |: C,2 [G,CE]2 G,,2 [G,CE]2 | %6
 A,,2 [^F,CD]2 G,,2 [G,B,D]2 | C,2 [G,CE]2 G,,2 [G,CE]2 | A,,2 [^F,CD]2 G,,2 [G,B,D]2 | %9
 C,2 [G,CE]2 G,,2 [G,CE]2 | C,2 [G,C]2 z !>!^F,!>!G,!>!^G, | A,2 [D,^F,C]2 [D,,D,]2 [D,F,C]2 | %12
 [G,,G,]2 (3(G,B,D G) z z2 | [_E,,_E,]2 [G,_B,_E]2 _B,,2 [G,B,E]2 | %14
 C,2 [F,A,_E]2 _B,,2 [F,_A,_B,D]2 | !tenuto![_E,_B,]8 | (([D,A,C]4 [G,=B,]2)) z2 | %17
 C,2 [G,CE]2 G,,2 [G,CE]2 | A,,2 [^F,CD]2 G,,2 [G,B,D]2 | [_A,,_A,]2 x6 |1 %20
 x2 !>![G,,G,]2 !>![C,C]2 z2 :|2 x2 !>![G,,G,]2 !>![C,C]2 !>![^A,,^A,]2 |: %22
 !>![B,,B,]2 [F,G,B,]2 G,,2 [F,G,B,]2 | B,,2 [F,G,B,]2 !>![G,,G,]2 !>![B,,B,]2 | %24
 !>![C,C]2 [G,CE]2 [G,,G,]2 [G,CE]2 | C,2 [G,CE]2 !>![E,E]2 !>![_E,_E]2 | %26
 !>![D,D]2 [G,B,F]2 [G,,G,]2 [G,B,F]2 | [D,D]2 [G,B,F]2 [G,,G,]2 [G,B,F]2 | !>![C,G,C] z z2 z4 | %29
 z8 | B,,2 [F,G,B,]2 G,,2 [F,G,B,]2 | B,,2 [F,G,B,]2 !>![G,,G,]2 !>![B,,B,]2 | %32
 !>![C,C]2 [G,CE]2 [G,,G,]2 [G,CE]2 | C,2 [G,CE]2 G,,2 [G,CE]2 |"^L.H." x8 | x6 !>![^F,,^F,]2 | %36
 !>![G,,G,]2 z2 z4 |1 (([D,C]2 [G,B,]2 [C,C]2)) [^A,,^A,]2 :|2 (([D,C]2 [G,B,]2 [C,C]2)) z2 || %39
 C,2 [G,CE]2 G,,2 [G,CE]2 | A,,2 [^F,CD]2 G,,2 [G,B,D]2 | C,2 [G,CE]2 G,,2 [G,CE]2 | %42
 A,,2 [^F,CD]2 G,,2 [G,B,D]2 | C,2 [G,CE]2 G,,2 [G,CE]2 | C,2 [G,C]2 z !>!^F,!>!G,!>!^G, | %45
 !>!A,2 [D,^F,C]2 [D,,D,]2 [D,F,C]2 | [G,,G,]2 (3(G,B,D G) z z2 | %47
 [_E,,_E,]2 [G,_B,_E]2 _B,,2 [G,B,E]2 | C,2 [F,A,_E]2 _B,,2 [F,_A,_B,D]2 | !tenuto![_E,_B,]8 | %50
 (([D,A,C]4 [G,=B,]2)) z2 | C,2 [G,CE]2 G,,2 [G,CE]2 | A,,2 [^F,CD]2 G,,2 [G,B,D]2 | %53
 !>![_A,,_A,]2 x6 | x2 !>![G,,G,]2 !>![C,C]2 |[K:F][M:4/4] z2 | %56
 [F,,F,]2 [F,A,C]2 [C,,C,]2 [F,A,C]2 | [F,,F,]2 [F,A,C]2 [E,,E,]2 [E,A,C]2 | %58
 [D,,D,]2 [F,A,D]2 A,,2 [F,A,D]2 | D,2 [F,A,D]2 A,,2 [G,A,^C]2 | D,2 [F,A,D]2 A,,2 [F,A,D]2 | %61
 D,2 [F,A,D]2 [G,,G,]2 [G,=B,F]2 | [C,C]2 [G,CE]2 [G,,G,]2 [G,CE]2 | %63
 !>![C,C]2 !>![C,C]2 !>![=B,,=B,]2 !>![_B,,_B,]2 | !>![A,,A,]2 [A,CF]2 F,2 [A,CF]2 | %65
 D,2 [G,=B,F]2 C,2 [G,_B,E]2 | [F,,F,]2 [A,CF]2 F,2 [A,CF]2 | D,2 [G,=B,F]2 C,2 [G,_B,E]2 | %68
 !>![F,,F,]2 !>![D,,D,]4 !>![B,,,B,,]2 | !>![C,,C,]3 !>![D,,D,] !>![E,,E,]2 !>![^C,,^C,]2 | %70
 !>![D,,D,]2 !>![G,,G,]4 !>![C,,C,]2 | !>![F,,F,]2 z2 !>![F,,F,]2 (3(E,^F,^G, || %72
[K:C] A,2) A,>A, =B,2 E>D | ^C A,3- A, z"^L.H." z2 | x8 | x4 x z (3G,A,B, | =C2 C>C D2 G>F | %77
 E C3- C z"^L.H." z2 | x8 | x4 x z z2 |({G,,,A,,,)B,,,} C,,2 z2 z4 |({G,,,A,,,)B,,,} C,,2 z2 z4 | %82
({G,,,A,,,)B,,,} C,,2 z2({G,,,A,,,)B,,,} C,,2 z2 |({G,,,A,,,)B,,,} C,,2 z2 z4 | %84
({G,,,A,,,)B,,,} C,,2 z2 z4 |({G,,,A,,,)B,,,} C,,2 z2 z4 | %86
({G,,,A,,,)B,,,} C,,2 z2({G,,,A,,,)B,,,} C,,2 z2 | %87
({G,,,A,,,)B,,,} C,,2 !>![_B,,_B,]2 !>![A,,A,]2 !>![G,,G,]2 || %88
[K:F] [F,,F,]2 [F,A,C]2 [C,,C,]2 [F,A,C]2 | [F,,F,]2 [F,A,C]2 [E,,E,]2 [E,A,C]2 | %90
 [D,,D,]2 [F,A,D]2 A,,2 [F,A,D]2 | D,2 [F,A,D]2 A,,2 [G,A,^C]2 | D,2 [F,A,D]2 A,,2 [F,A,D]2 | %93
 D,2 [F,A,D]2 [G,,G,]2 [G,=B,F]2 | [C,C]2 [G,CE]2 [G,,G,]2 [G,CE]2 | %95
 !>![C,C]2 !>![C,C]2 !>![=B,,=B,]2 !>![_B,,_B,]2 | !>![A,,A,]2 [A,CF]2 F,2 [A,CF]2 | %97
 D,2 [G,=B,F]2 C,2 [G,_B,E]2 | [F,,F,]2 [A,CF]2 F,2 [A,CF]2 | D,2 [G,=B,F]2 C,2 [G,_B,E]2 | %100
 !>![F,,F,]2 !>![D,,D,]4 !>![B,,,B,,]2 | !>![C,,C,]3 !>![D,,D,] !>![E,,E,]2 !>![^C,,^C,]2 | %102
 !>![D,,D,]2 !>![G,,G,]4 !>![C,,C,]2 | !>![F,,F,]2 z2 !>![F,,F,]2 z2 |] %104

